wifi-strength-2-lock-open.svg

<svg fill="currentColor" viewBox="0 0 24 24"><path d="M15.44 10.55c-.76.8-1.24 1.83-1.24 2.95v1.24c-.7.6-1.2 1.5-1.2 2.46v3.04l-1 1.26C7.88 16.37 4.39 12.06.365 7 3.69 4.41 7.78 3 12 3c4.2 0 8.31 1.41 11.64 4L21.5 9.69c-.64-.36-1.34-.59-2.09-.65l1.29-1.59C18.08 5.86 15.06 5 12 5s-6.1.85-8.74 2.44l3.24 3.99C7.73 10.75 9.61 10 12 10c1.29 0 2.45.23 3.44.55M21.8 16h-4.3v-2.5c0-.8.7-1.3 1.5-1.3s1.5.5 1.5 1.3v.5h1.3v-.5c0-1.4-1.4-2.5-2.8-2.5s-2.8 1.1-2.8 2.5V16c-.6 0-1.2.6-1.2 1.2v3.5c0 .7.6 1.3 1.2 1.3h5.5c.7 0 1.3-.6 1.3-1.2v-3.5c0-.7-.6-1.3-1.2-1.3"/></svg>

<svg  viewBox="0 0 24 24" fill="currentColor"><path  d="M15.44 10.55C14.68 11.35 14.2 12.38 14.2 13.5V14.74C13.5 15.34 13 16.24 13 17.2V20.24L12 21.5C7.88 16.37 4.39 12.06 .365 7C3.69 4.41 7.78 3 12 3C16.2 3 20.31 4.41 23.64 7L21.5 9.69C20.86 9.33 20.16 9.1 19.41 9.04L20.7 7.45C18.08 5.86 15.06 5 12 5S5.9 5.85 3.26 7.44L6.5 11.43C7.73 10.75 9.61 10 12 10C13.29 10 14.45 10.23 15.44 10.55M21.8 16H17.5V13.5C17.5 12.7 18.2 12.2 19 12.2S20.5 12.7 20.5 13.5V14H21.8V13.5C21.8 12.1 20.4 11 19 11S16.2 12.1 16.2 13.5V16C15.6 16 15 16.6 15 17.2V20.7C15 21.4 15.6 22 16.2 22H21.7C22.4 22 23 21.4 23 20.8V17.3C23 16.6 22.4 16 21.8 16Z"/></svg>
